X:1
T:Dreary Black Hills
M:3/4
L:1/4
K:Bb
 z2 D| F d3/2 c/2| B2 D| F A3/2 G/2| F2 C| E G3/2 G/2| F F D| C D =E|\
 F2F/2-F/2| d d c| B D E| F A3/2 G/2| F2 B,| E G3/2 G/2| F A B| c3/2 G/2 A|\
 B2 F| B d3/2- c/2| B2 D| F A3/2 G/2| F2 B,/2B,/2| E G3/2 G/2| F2 D|\
 C D =E| F2 F| F d3/2 c/2| B D3/2 E/2| F- A G| F2 B,/2B,/2| E G3/2 G/2|\
 F A B| c G A| B2 z|
